X: 5
T: Tam Lin
R: reel
M: 4/4
L: 1/8
K: Bmin
F2GF dFBF|G2BG dGBG|A2cA eAcA|dcBA FBBA|F2GF dFBF|G2BG dGBG|A2cA eAcA|dcBA FBB2:||:bf~f2 dfBf|bf~f2 dfBf|ae~e2 ce~e2|ae~e2 abc'a|bf~f2 dfBf|bf~f2 dfBF|~G3F GABc|dBcA FBB2:|


Tune 248	Setting 12963

